X:251
T: AUF DEINEN HOEHN
N: B0732
O: Europa, Mitteleuropa, Deutschland; Schottland
R: Heimat - Lied
M: 2/4
L: 1/16
K: Eb
B2 | e4d2c2 | B4
c2e2 | G2G2A2F2 | E6
B2 | e4d2c2 | B4
c2e2 | G2G2A2F2 | E6
G2 | F2B2d2f2 | f6
e2 | d2B2c2=A2 | B6
cd | e4d2c2 | B4
c2e2 | G2G2BAF2 | E4z2

@@@ Tune index: 2469
